icons/x/x-square.svg

<svg width="14" height="14" viewBox="0 0 14 14" fill="none"
    xmlns="http://www.w3.org/2000/svg">
    <path d="M5.25365 8.74635L8.75 5.25M8.75 8.75L5.25 5.25" stroke="red" stroke-linecap="round" stroke-linejoin="round"/>
    <path d="M10.5 2.5H3.5C2.94772 2.5 2.5 2.94772 2.5 3.5V10.5C2.5 11.0523 2.94772 11.5 3.5 11.5H10.5C11.0523 11.5 11.5 11.0523 11.5 10.5V3.5C11.5 2.94772 11.0523 2.5 10.5 2.5Z" stroke="green" stroke-linejoin="round"/>
</svg>

<svg xmlns="http://www.w3.org/2000/svg" width="14" height="14" fill="none" viewBox="0 0 14 14"><path stroke="red" stroke-linecap="round" stroke-linejoin="round" d="M5.254 8.746 8.75 5.25m0 3.5-3.5-3.5"/><path stroke="green" stroke-linejoin="round" d="M10.5 2.5h-7a1 1 0 0 0-1 1v7a1 1 0 0 0 1 1h7a1 1 0 0 0 1-1v-7a1 1 0 0 0-1-1Z"/></svg>
